places/scalable/folder-cyan-network.svg

<svg xmlns="http://www.w3.org/2000/svg" style="isolation:isolate" width="256" height="256"><path d="M53.039 21C16.724 21 13 23.055 13 59.371v52.167h230V79.563c0-36.316-3.724-42.102-40.039-42.102h-89.336L97.198 21H53.039z" fill="#2B898F"/><path d="M53.039 70.384C16.722 70.384 13 74.114 13 110.429v84.524C13 231.269 16.722 235 53.039 235h149.922c36.317 0 40.039-3.731 40.039-40.047V93.969c0-36.316-3.722-40.047-40.039-40.047H119.53l-16.438 16.462H53.039z" fill="#31C6B7"/><linearGradient id="a" y1=".5" x2="0" y2="-.5" gradientTransform="matrix(230 0 0 181.078 13 53.922)" gradientUnits="userSpaceOnUse"><stop offset="0%" stop-opacity=".07" stop-color="#fff"/><stop offset="67.282%" stop-opacity="0" stop-color="#fcefe8"/></linearGradient><path d="M53.039 70.384C16.722 70.384 13 74.114 13 110.429v84.524C13 231.269 16.722 235 53.039 235h149.922c36.317 0 40.039-3.731 40.039-40.047V93.969c0-36.316-3.722-40.047-40.039-40.047H119.53l-16.438 16.462H53.039z" fill="url(#a)"/><g opacity=".4"><radialGradient id="b" fx=".5" fy=".136" cx=".5" cy=".5" r=".272" gradientTransform="matrix(230 0 0 60.62 13 21)" gradientUnits="userSpaceOnUse"><stop offset="0%" stop-color="#fff"/><stop offset="100%" stop-opacity=".204" stop-color="#fff"/></radialGradient><path d="M53.039 21C16.724 21 13 23.055 13 59.371v2.059c0-36.316 3.724-38.373 40.039-38.373h44.159l16.427 16.461h89.336c36.315 0 40.039 5.786 40.039 42.102v-2.057c0-36.316-3.724-42.102-40.039-42.102h-89.336L97.198 21H53.039z" fill="url(#b)"/></g><g opacity=".4"><radialGradient id="c" fx=".482" fy=".211" cx=".5" cy=".5" r=".272" gradientTransform="matrix(230 0 0 58.565 13 53.922)" gradientUnits="userSpaceOnUse"><stop offset="0%" stop-color="#fff"/><stop offset="100%" stop-opacity=".204" stop-color="#fff"/></radialGradient><path d="M119.53 53.922l-16.438 16.462H53.039C16.724 70.384 13 74.112 13 110.427v2.06c0-36.316 3.724-40.046 40.039-40.046h50.053l16.438-16.46h83.431c36.315 0 40.039 3.727 40.039 40.043v-2.057c0-36.316-3.724-40.045-40.039-40.045H119.53z" fill="url(#c)"/></g><path d="M243 167.096l-65.715 65.845h25.676c36.315 0 40.039-3.727 40.039-40.043v-25.802z" fill="#FFF" opacity=".1"/><path d="M13 192.898v2.057C13 231.271 16.724 235 53.039 235h149.922c36.315 0 40.039-3.729 40.039-40.045v-2.057c0 36.316-3.724 40.043-40.039 40.043H53.039c-36.315 0-40.039-3.727-40.039-40.043z" opacity=".2"/><g opacity=".62"><path d="M127.998 92c-33.101 0-59.997 26.902-59.997 60.003S94.897 212 127.998 212s60.001-26.896 60.001-59.997S161.099 92 127.998 92zm0 6.001c18.661 0 35.089 9.432 44.786 23.795-.33-.49-.713-.941-1.059-1.418h-4.667l-4.829 4.829-3.22-3.22h-9.659l-4.829 4.83v4.025h4.829v-2.416h3.22v3.22l-1.61 1.609-6.439.121-2.416 2.304h-3.219v3.219l-2.415 2.413v4.83h4.83l3.22-3.22h3.219v1.608l3.22 3.22h1.61v-1.609l-3.22-3.22h3.22l3.219 3.22h4.024l-2.414-2.413 2.414-2.415h2.416l2.414 2.415h-2.414l-2.416 2.413 2.372 2.371.045 2.458h-3.22l9.659 9.659h1.61l1.61-1.609 3.219-3.219-3.219-3.22h10.081c.002-.181.029-.378.029-.571 0 29.858-24.142 53.995-54 53.995a53.847 53.847 0 0 1-23.708-5.464l-.014-2.884 10.463-9.659v-3.22l4.829-4.829v-2.413l2.415-2.416v-6.439l-3.219-3.22h-6.441l-3.219-3.22h-8.049l-3.22 3.22v8.049l6.461 5.662-.022 7.217-2.415 2.416v10.463l.019.021c-16.63-9.195-27.877-26.9-27.877-47.277 0-3.732.377-7.375 1.096-10.892-.266 1.3-.435 2.636-.605 3.971v1.859l8.854 8.854h4.83l8.049 8.048v-9.659l4.83-4.829h3.219l4.83-4.829h4.829l-2.415-2.413 4.829-5.635-4.829-4.83h-7.244v6.44h-3.22l-3.219-3.22v-3.22l4.829-4.829h4.024v-3.22l-4.829-4.829h-8.05v4.829h-4.023l-4.533-4.532c-.693.901-1.403 1.787-2.04 2.73a54.169 54.169 0 0 1 9.009-10.25l4.003 4.003h8.049v-8.049h-6.883c8.695-5.988 19.233-9.498 30.606-9.498v-.011zm31.011 52.963h-9.659l-1.609-1.608h-9.659l-5.636 5.635v8.049l4.026 4.024h5.633l2.416 2.416v2.413l1.61 1.608v9.659l6.112 6.462 10.094-10.094-.108-9.246 8.049-8.05h-3.22l-8.049-8.049v-3.219zm-43.465-43.465l-5.635 6.439 4.829 4.83v5.047l5.635 6.222h3.22v-3.22l4.83-4.83v-3.219l3.219-3.22v-4.829l-3.219-3.22h-12.879zm12.073 20.928v2.416h4.829l-2.414-2.416h-2.415zm14.488.804l-2.414 2.413v2.416h2.414v-4.829zm-24.951 8.854l-2.416 2.415h2.416l.804.805h.806l.804-.805-2.414-2.415zm-13.684 16.903l-2.414 2.413h4.829v-2.413h-2.415zm64.393 18.513l-3.22 3.002v5.046h3.22v-8.048z" fill="#FFF"/></g></svg>

<?xml version="1.0" standalone="no"?><!-- Generator: Gravit.io -->
<svg xmlns="http://www.w3.org/2000/svg" 
  xmlns:xlink="http://www.w3.org/1999/xlink" style="isolation:isolate" viewBox="0 0 256 256" width="256" height="256">
  <switch>
    <g>
      <g id="folder">
        <path d=" M 53.039 21 C 16.724 21 13 23.055 13 59.371 L 13 111.538 L 243 111.538 L 243 79.563 C 243 43.247 239.276 37.461 202.961 37.461 L 113.625 37.461 L 97.198 21 L 53.039 21 Z " id="orange" fill="#2B898F"/>
        <path d=" M 53.039 70.384 C 16.722 70.384 13 74.114 13 110.429 L 13 194.953 C 13 231.269 16.722 235 53.039 235 L 202.961 235 C 239.278 235 243 231.269 243 194.953 L 243 93.969 C 243 57.653 239.278 53.922 202.961 53.922 L 119.53 53.922 L 103.092 70.384 L 53.039 70.384 Z " id="change-color-easy" fill="#31C6B7"/>
        <linearGradient id="_lgradient_26" x1="0" y1="0.5" x2="2.83276944882399e-16" y2="-0.5" gradientTransform="matrix(230,0,0,181.078,13,53.922)" gradientUnits="userSpaceOnUse">
          <stop offset="0%" stop-opacity="0.07" style="stop-color:rgb(255,255,255)"/>
          <stop offset="67.28219512106674%" stop-opacity="0" style="stop-color:rgb(252,239,232)"/>
        </linearGradient>
        <path d=" M 53.039 70.384 C 16.722 70.384 13 74.114 13 110.429 L 13 194.953 C 13 231.269 16.722 235 53.039 235 L 202.961 235 C 239.278 235 243 231.269 243 194.953 L 243 93.969 C 243 57.653 239.278 53.922 202.961 53.922 L 119.53 53.922 L 103.092 70.384 L 53.039 70.384 Z " id="gradient white" fill="url(#_lgradient_26)"/>
        <g opacity="0.4">
          <radialGradient id="_rgradient_51" fx="0.5000000213726793" fy="0.13577386516315215" cx="0.5" cy="0.5" r="0.27154159375000003" gradientTransform="matrix(230,0,0,60.62,13,21)" gradientUnits="userSpaceOnUse">
            <stop offset="0%" stop-opacity="1" style="stop-color:rgb(255,255,255)"/>
            <stop offset="100%" stop-opacity="0.20392157" style="stop-color:rgb(255,255,255)"/>
          </radialGradient>
          <path d=" M 53.039 21 C 16.724 21 13 23.055 13 59.371 L 13 61.43 C 13 25.114 16.724 23.057 53.039 23.057 L 97.198 23.057 L 113.625 39.518 L 202.961 39.518 C 239.276 39.518 243 45.304 243 81.62 L 243 79.563 C 243 43.247 239.276 37.461 202.961 37.461 L 113.625 37.461 L 97.198 21 L 53.039 21 Z " id="white" fill="url(#_rgradient_51)"/>
        </g>
        <g opacity="0.4">
          <radialGradient id="_rgradient_52" fx="0.48214287810452355" fy="0.2108154047287485" cx="0.5" cy="0.5" r="0.27154159375" gradientTransform="matrix(230,0,0,58.565,13,53.922)" gradientUnits="userSpaceOnUse">
            <stop offset="0%" stop-opacity="1" style="stop-color:rgb(255,255,255)"/>
            <stop offset="100%" stop-opacity="0.20392157" style="stop-color:rgb(255,255,255)"/>
          </radialGradient>
          <path d=" M 119.53 53.922 L 103.092 70.384 L 53.039 70.384 C 16.724 70.384 13 74.112 13 110.427 L 13 112.487 C 13 76.171 16.724 72.441 53.039 72.441 L 103.092 72.441 L 119.53 55.981 L 202.961 55.981 C 239.276 55.981 243 59.708 243 96.024 L 243 93.967 C 243 57.651 239.276 53.922 202.961 53.922 L 119.53 53.922 Z " id="white" fill="url(#_rgradient_52)"/>
        </g>
        <g opacity="0.1">
          <path d=" M 243 167.096 L 177.285 232.941 L 202.961 232.941 C 239.276 232.941 243 229.214 243 192.898 L 243 167.096 Z " id="white" fill="rgb(255,255,255)"/>
        </g>
        <g opacity="0.2">
          <path d=" M 13 192.898 L 13 194.955 C 13 231.271 16.724 235 53.039 235 L 202.961 235 C 239.276 235 243 231.271 243 194.955 L 243 192.898 C 243 229.214 239.276 232.941 202.961 232.941 L 53.039 232.941 C 16.724 232.941 13 229.214 13 192.898 Z " id="dark" fill="rgb(0,0,0)"/>
        </g>
      </g>
      <g opacity="0.62">
        <path d=" M 127.998 92 C 94.897 92 68.001 118.902 68.001 152.003 C 68.001 185.104 94.897 212 127.998 212 C 161.099 212 187.999 185.104 187.999 152.003 C 187.999 118.902 161.099 92 127.998 92 Z  M 127.998 98.001 C 146.659 98.001 163.087 107.433 172.784 121.796 C 172.454 121.306 172.071 120.855 171.725 120.378 L 167.058 120.378 L 162.229 125.207 L 159.009 121.987 L 149.35 121.987 L 144.521 126.817 L 144.521 130.842 L 149.35 130.842 L 149.35 128.426 L 152.57 128.426 L 152.57 131.646 L 150.96 133.255 L 144.521 133.376 L 142.105 135.68 L 138.886 135.68 L 138.886 138.899 L 136.471 141.312 L 136.471 146.142 L 141.301 146.142 L 144.521 142.922 L 147.74 142.922 L 147.74 144.53 L 150.96 147.75 L 152.57 147.75 L 152.57 146.141 L 149.35 142.921 L 152.57 142.921 L 155.789 146.141 L 159.813 146.141 L 157.399 143.728 L 159.813 141.313 L 162.229 141.313 L 164.643 143.728 L 162.229 143.728 L 159.813 146.141 L 162.185 148.512 L 162.23 150.97 L 159.01 150.97 L 168.669 160.629 L 170.279 160.629 L 171.889 159.02 L 175.108 155.801 L 171.889 152.581 L 181.97 152.581 C 181.972 152.4 181.999 152.203 181.999 152.01 C 181.999 181.868 157.857 206.005 127.999 206.005 C 119.488 206.005 111.446 204.037 104.291 200.541 L 104.277 197.657 L 114.74 187.998 L 114.74 184.778 L 119.569 179.949 L 119.569 177.536 L 121.984 175.12 L 121.984 168.681 L 118.765 165.461 L 112.324 165.461 L 109.105 162.241 L 101.056 162.241 L 97.836 165.461 L 97.836 173.51 L 104.297 179.172 L 104.275 186.389 L 101.86 188.805 L 101.86 199.268 L 101.879 199.289 C 85.249 190.094 74.002 172.389 74.002 152.012 C 74.002 148.28 74.379 144.637 75.098 141.12 C 74.832 142.42 74.663 143.756 74.493 145.091 L 74.493 146.95 L 83.347 155.804 L 88.177 155.804 L 96.226 163.852 L 96.226 154.193 L 101.056 149.364 L 104.275 149.364 L 109.105 144.535 L 113.934 144.535 L 111.519 142.122 L 116.348 136.487 L 111.519 131.657 L 104.275 131.657 L 104.275 138.097 L 101.055 138.097 L 97.836 134.877 L 97.836 131.657 L 102.665 126.828 L 106.689 126.828 L 106.689 123.608 L 101.86 118.779 L 93.81 118.779 L 93.81 123.608 L 89.787 123.608 L 85.254 119.076 C 84.561 119.977 83.851 120.863 83.214 121.806 C 85.773 118.016 88.809 114.576 92.223 111.556 L 96.226 115.559 L 104.275 115.559 L 104.275 107.51 L 97.392 107.51 C 106.087 101.522 116.625 98.012 127.998 98.012 L 127.998 98.001 Z  M 159.009 150.964 L 149.35 150.964 L 147.741 149.356 L 138.082 149.356 L 132.446 154.991 L 132.446 163.04 L 136.472 167.064 L 142.105 167.064 L 144.521 169.48 L 144.521 171.893 L 146.131 173.501 L 146.131 183.16 L 152.243 189.622 L 162.337 179.528 L 162.229 170.282 L 170.278 162.232 L 167.058 162.232 L 159.009 154.183 L 159.009 150.964 Z  M 115.544 107.499 L 109.909 113.938 L 114.738 118.768 L 114.738 123.815 L 120.373 130.037 L 123.593 130.037 L 123.593 126.817 L 128.423 121.987 L 128.423 118.768 L 131.642 115.548 L 131.642 110.719 L 128.423 107.499 L 115.544 107.499 Z  M 127.617 128.427 L 127.617 130.843 L 132.446 130.843 L 130.032 128.427 L 127.617 128.427 Z  M 142.105 129.231 L 139.691 131.644 L 139.691 134.06 L 142.105 134.06 L 142.105 129.231 Z  M 117.154 138.085 L 114.738 140.5 L 117.154 140.5 L 117.958 141.305 L 118.764 141.305 L 119.568 140.5 L 117.154 138.085 Z  M 103.47 154.988 L 101.056 157.401 L 105.885 157.401 L 105.885 154.988 L 103.47 154.988 Z  M 167.863 173.501 L 164.643 176.503 L 164.643 181.549 L 167.863 181.549 L 167.863 173.501 Z " id="network" fill="#FFFFFF"/>
      </g>
    </g>
  </switch>
</svg>
